src/icons/solid/symbols/workflow.svg

<svg width="24" height="24" viewBox="0 0 24 24" fill="none" xmlns="http://www.w3.org/2000/svg">
<g clip-path="url(#clip0_4787_592)">
<path fill-rule="evenodd" clip-rule="evenodd" d="M1.25011 1.27564C1.4302 1.10209 1.6703 1 1.92042 1H10.3542C10.6044 1 10.8445 1.09188 11.0245 1.27564C11.1946 1.4594 11.2947 1.70441 11.2947 1.95963V2.43944H13.6357C13.9859 2.43944 14.3561 2.56195 14.6362 2.8478C14.9163 3.13364 15.0364 3.51137 15.0364 3.86868V8.6464H16.437V8.16659C16.437 7.91137 16.5271 7.66636 16.7071 7.4826C16.8872 7.30905 17.1273 7.20696 17.3774 7.20696H22.0596C22.3097 7.20696 22.5498 7.29884 22.7299 7.4826C22.9 7.66636 23 7.91137 23 8.16659V11.0353C23 11.2701 22.9 11.4947 22.7599 11.658C22.5898 11.8622 22.3297 11.9847 22.0696 11.9847H17.3874C17.1373 11.9847 16.8972 11.8928 16.7171 11.709C16.5471 11.5253 16.447 11.2803 16.447 11.0251V10.5452H14.5762C14.206 10.5452 13.8458 10.4023 13.5757 10.1369C13.3156 9.86125 13.1655 9.49374 13.1755 9.11601V4.34849H11.3047V4.82831C11.3047 5.06311 11.2046 5.2877 11.0646 5.45104C10.8945 5.65522 10.6344 5.77773 10.3743 5.77773H1.94043C1.69032 5.77773 1.45019 5.68585 1.27011 5.50209C1.10003 5.31833 1 5.07332 1 4.8181V1.95963C1 1.70441 1.08003 1.4594 1.27011 1.27564H1.25011ZM13.6257 18.2019C13.3756 18.2019 13.1355 18.2937 12.9554 18.4775C12.7854 18.6613 12.6853 18.9063 12.6853 19.1615V19.6413H11.7449V12.4747C11.7449 12.097 11.6048 11.7295 11.3447 11.4538C11.0746 11.1884 10.7144 11.0353 10.3442 11.0455H8.94362V10.5657C8.94362 10.3104 8.85357 10.0654 8.67349 9.88167C8.49341 9.70812 8.2533 9.60603 8.00319 9.60603H3.32105C3.07093 9.60603 2.83083 9.69791 2.65074 9.88167C2.48067 10.0654 2.38062 10.3104 2.38062 10.5657V13.4343C2.38062 13.6896 2.47066 13.9346 2.65074 14.1183C2.83083 14.2919 3.07093 14.394 3.32105 14.394H8.00319C8.31333 14.394 8.54343 14.2408 8.6935 14.0673C8.83357 13.9039 8.9336 13.6793 8.9336 13.4445V12.9647H9.87403V20.1313C9.87403 20.4886 9.99408 20.8664 10.2742 21.1522C10.5543 21.4381 10.9245 21.5606 11.2747 21.5606H12.6753V22.0404C12.6753 22.2956 12.7654 22.5406 12.9454 22.7244C13.1255 22.8979 13.3656 23 13.6157 23H22.0496C22.3597 23 22.5898 22.8469 22.7399 22.6733C22.8799 22.51 22.98 22.2854 22.98 22.0506V19.1819C22.98 18.9267 22.89 18.6817 22.7099 18.4979C22.5298 18.3244 22.2897 18.2223 22.0396 18.2223H13.6057L13.6257 18.2019Z" fill="#3C3B44"/>
</g>
<defs>
<clipPath id="clip0_4787_592">
<rect width="24" height="24" fill="white"/>
</clipPath>
</defs>
</svg>

<svg xmlns="http://www.w3.org/2000/svg" width="24" height="24" fill="none" viewBox="0 0 24 24"><g clip-path="url(#a)"><path fill="currentColor" fill-rule="evenodd" d="M1.25 1.276A.97.97 0 0 1 1.92 1h8.434c.25 0 .49.092.67.276.17.183.27.428.27.684v.48h2.342c.35 0 .72.122 1 .408s.4.663.4 1.02v4.778h1.401v-.48c0-.255.09-.5.27-.683a.97.97 0 0 1 .67-.276h4.683c.25 0 .49.092.67.276.17.183.27.428.27.684v2.868c0 .235-.1.46-.24.623a.91.91 0 0 1-.69.327h-4.683a.93.93 0 0 1-.67-.276 1 1 0 0 1-.27-.684v-.48h-1.87c-.371 0-.731-.143-1.001-.408a1.44 1.44 0 0 1-.4-1.021V4.348h-1.871v.48c0 .235-.1.46-.24.623a.91.91 0 0 1-.69.327H1.94a.93.93 0 0 1-.67-.276A1 1 0 0 1 1 4.818V1.96c0-.256.08-.5.27-.684zm12.376 16.926a.93.93 0 0 0-.67.275c-.17.184-.27.43-.27.684v.48h-.941v-7.166c0-.378-.14-.745-.4-1.021a1.38 1.38 0 0 0-1-.409H8.943v-.48c0-.255-.09-.5-.27-.683a.97.97 0 0 0-.67-.276H3.32c-.25 0-.49.092-.67.276a1 1 0 0 0-.27.684v2.868c0 .256.09.5.27.684a.97.97 0 0 0 .67.276h4.682a.9.9 0 0 0 .69-.327.98.98 0 0 0 .24-.623v-.48h.941v7.167c0 .358.12.735.4 1.021s.65.409 1 .409h1.401v.48c0 .255.09.5.27.683a.97.97 0 0 0 .67.276h8.435a.9.9 0 0 0 .69-.327.98.98 0 0 0 .24-.622v-2.87c0-.254-.09-.5-.27-.683a.97.97 0 0 0-.67-.276h-8.434z" clip-rule="evenodd"/></g><defs><clipPath id="a"><path fill="currentColor" d="M0 0h24v24H0z"/></clipPath></defs></svg>
